X: 20298
T: John Blessing's
R: reel
M: 4/4
K: Dmajor
|:dB|AFDF EFDF|AFAB e2 dB|AFDF EFDF|AFAB d2:|
(3ABc|d2 fd efdB|AFAB e2 dB|d2 fd efdB|AFAB d2 (3ABc|
d2 fd efdB|AFAB e3 f|df ~f2 afbf|afef d2||

